Obsidian-SemiLight/actions/22s/zoom-previous.svg

<svg viewBox="0 0 22 22" xmlns="http://www.w3.org/2000/svg"><path d="m3 3v1 2h1v-2h2v-1h-2zm13 0v1h2v2h1v-2-1h-1zm-3.714844 4.3242188-1.802734 1.8007812-1.8750001 1.875 1.8750001 1.875 1.802734 1.800781.707032-.707031-1.802735-1.800781-1.167969-1.167969 1.167969-1.1679688 1.802735-1.8007812zm-9.285156 8.6757812v2 1h3v-1h-2v-2zm15 0v2h-2v1h3v-3z" fill="#4d4d4d"/></svg>

<svg xmlns="http://www.w3.org/2000/svg" viewBox="0 0 22 22">
  <defs id="defs3051">
    <style type="text/css" id="current-color-scheme">
      .ColorScheme-Text {
        color:#4d4d4d;
      }
      </style>
  </defs>
 <path 
     style="fill:currentColor;fill-opacity:1;stroke:none" 
     d="M 3 3 L 3 4 L 3 6 L 4 6 L 4 4 L 6 4 L 6 3 L 4 3 L 3 3 z M 16 3 L 16 4 L 18 4 L 18 6 L 19 6 L 19 4 L 19 3 L 18 3 L 16 3 z M 12.285156 7.3242188 L 10.482422 9.125 L 8.6074219 11 L 10.482422 12.875 L 12.285156 14.675781 L 12.992188 13.96875 L 11.189453 12.167969 L 10.021484 11 L 11.189453 9.8320312 L 12.992188 8.03125 L 12.285156 7.3242188 z M 3 16 L 3 18 L 3 19 L 6 19 L 6 18 L 4 18 L 4 16 L 3 16 z M 18 16 L 18 18 L 16 18 L 16 19 L 19 19 L 19 16 L 18 16 z "
	 class="ColorScheme-Text"
     />
</svg>
